svg/fluentui-system-icons/ic_fluent_sparkle_circle_48_regular.svg

<svg width="48" height="48" viewBox="0 0 48 48" fill="none" xmlns="http://www.w3.org/2000/svg">
<path d="M17.1162 12.3335C17.7444 10.5561 20.2577 10.5553 20.8871 12.3323L21.804 14.9213C22.0156 15.5185 22.4854 15.9883 23.0827 16.1998L25.6697 17.1156C27.4465 17.7447 27.4464 20.2575 25.6695 20.8864L23.083 21.8018C22.4856 22.0132 22.0156 22.4831 21.8041 23.0805L20.8871 25.67C20.2579 27.4472 17.7442 27.4464 17.1161 25.6688L16.202 23.082C15.9906 22.4838 15.5201 22.0132 14.922 21.8017L12.3334 20.8866C10.5557 20.2581 10.5555 17.7441 12.3332 17.1154L14.9223 16.1998C15.5203 15.9883 15.9907 15.5178 16.202 14.9198L17.1162 12.3335ZM31.4143 24.9991C30.9423 23.6665 29.0576 23.6671 28.5865 25L27.901 26.9394C27.7425 27.3878 27.3897 27.7406 26.9413 27.8992L24.9997 28.5859C23.6667 29.0573 23.6668 30.9425 24.9999 31.4138L26.941 32.1001C27.3896 32.2586 27.7425 32.6115 27.901 33.0601L28.5864 34.9999C29.0575 36.3329 30.9424 36.3335 31.4143 35.0008L32.1019 33.059C32.2605 32.611 32.613 32.2586 33.061 32.1001L35.0006 31.4137C36.3331 30.9421 36.3332 29.0577 35.0007 28.586L33.0608 27.8992C32.6129 27.7406 32.2605 27.3883 32.1019 26.9405L31.4143 24.9991ZM4 24C4 12.9543 12.9543 4 24 4C35.0457 4 44 12.9543 44 24C44 35.0457 35.0457 44 24 44C12.9543 44 4 35.0457 4 24ZM24 6.5C14.335 6.5 6.5 14.335 6.5 24C6.5 33.665 14.335 41.5 24 41.5C33.665 41.5 41.5 33.665 41.5 24C41.5 14.335 33.665 6.5 24 6.5Z" fill="#212121"/>
</svg>

<svg xmlns="http://www.w3.org/2000/svg" width="48" height="48"><path d="M17.116 12.334c.628-1.778 3.142-1.779 3.771-.002l.917 2.59a2.1 2.1 0 0 0 1.279 1.278l2.587.916c1.776.629 1.776 3.142 0 3.77l-2.587.916a2.1 2.1 0 0 0-1.279 1.279l-.917 2.589c-.63 1.777-3.143 1.776-3.77-.001l-.915-2.587a2.1 2.1 0 0 0-1.28-1.28l-2.589-.915c-1.777-.629-1.777-3.143 0-3.772l2.59-.915a2.1 2.1 0 0 0 1.279-1.28l.914-2.586Zm14.298 12.665c-.472-1.332-2.356-1.332-2.828.001l-.685 1.94a1.575 1.575 0 0 1-.96.96L25 28.585c-1.333.471-1.333 2.357 0 2.828l1.941.686c.449.159.802.511.96.96l.685 1.94c.472 1.333 2.356 1.334 2.828 0l.688-1.941c.159-.448.511-.8.959-.959l1.94-.686c1.332-.472 1.332-2.356 0-2.828l-1.94-.687c-.448-.158-.8-.51-.96-.959L31.415 25ZM4 24C4 12.954 12.954 4 24 4s20 8.954 20 20-8.954 20-20 20S4 35.046 4 24ZM24 6.5C14.335 6.5 6.5 14.335 6.5 24S14.335 41.5 24 41.5 41.5 33.665 41.5 24 33.665 6.5 24 6.5Z"/></svg>
